X:1
T:Title
%%score { ( 1 3 ) | ( 2 4 ) }
L:1/8
M:4/4
K:Db
V:1 treble nm="Grand Piano"
V:3 treble 
V:2 bass 
V:4 bass 
V:1
 z4 z2[Q:1/4=106] [DF]>[EG] | [FA]2 [FA]2 [GB]2 [FA]2 | [FA]2 [Fd]4 [A,DF]>[A,EG] | %3
 [DFA]2 [A,FA]2 [A,EA]2 [A,EG]2 |[M:3/4] [A,DF]6 |[M:1/4] [A,DF]>[A,EG] | %6
[M:4/4] [FA]2 [FA]2 [GB]2 [FA]2 | [FA]2 [Fd]4 [Fd]>[Fd] | [Gc]2 [Gc]2 [GB]2 [Gc]2 |[M:3/4] [Fd]6 | %10
[M:1/4] [Af]>[Af] |[M:4/4] [Af]2 [FA]2 [GB]2 [Bd]2 | [GB]2 [FA]4 [Af]>[Af] | %13
 [Ae]2 [Ae]2 [=Ge]2 [Ge]2 |[M:3/4] e6[K:bass] |[M:1/4][K:treble] [GA]>[GA] | %16
[M:4/4] [FA]2 [FA]2 [Af]2 [Ad]2 | [Bd]2 [GB]4 [Bd]>B | A2 d2 [Gd]2 [Gc]2 |[M:3/4] [Fd]6 |] %20
V:2
 z4 z2 [D,A,]>[D,A,] | [D,D]2 [D,D]2 [D,D]2 [D,D]2 | [D,D]2 [D,A,]4 D,>D, | D,2 D,2 C,2 A,,2 | %4
[M:3/4] D,6 |[M:1/4] D,>D, |[M:4/4] [D,D]2 [D,D]2 [D,D]2 [D,D]2 | [D,D]2 [D,A,]4 [D,A,]>[D,A,] | %8
 [A,,A,]2 [A,,A,]2 [A,,A,]2 [A,,A,]2 |[M:3/4] [D,A,]6 |[M:1/4] [D,D]>[D,D] | %11
[M:4/4] [D,D]2 [D,D]2 [G,D]2 [G,D]2 | [D,D]2 [D,D]4 [D,D]>[D,D] | [E,C]2 [E,C]2 [E,B,]2 [E,D]2 | %14
[M:3/4][K:treble] [CA]6 |[M:1/4][K:bass] [E,C]>[E,C] |[M:4/4] [D,D]2 [D,D]2 [D,D]2 [F,D]2 | %17
 [G,D]2 [G,D]4 [G,D]>[K:treble][G,DG] | [A,DF]2 [A,F]2[K:bass] [A,,A,]2 [A,,A,]2 | %19
[M:3/4] [D,A,]6 |] %20
V:3
 x8 | x8 | x8 | x8 |[M:3/4] x6 |[M:1/4] x2 |[M:4/4] x8 | x8 | x8 |[M:3/4] x6 |[M:1/4] x2 | %11
[M:4/4] x8 | x8 | x8 |[M:3/4] z2[K:bass] G,2 F,2 |[M:1/4][K:treble] x2 |[M:4/4] x8 | x8 | x8 | %19
[M:3/4] x6 |] %20
V:4
 x8 | x8 | x8 | x8 |[M:3/4] x6 |[M:1/4] x2 |[M:4/4] x8 | x8 | x8 |[M:3/4] x6 |[M:1/4] x2 | %11
[M:4/4] x8 | x8 | x8 |[M:3/4][K:treble] A,2 z2 z2 |[M:1/4][K:bass] x2 |[M:4/4] x8 | %17
 x15/2[K:treble] x/ | x4[K:bass] x4 |[M:3/4] x6 |] %20

